icons/circle/48/qsynth.svg

<svg xmlns="http://www.w3.org/2000/svg" viewBox="0 0 48 48">
 <defs>
  <linearGradient id="linearGradient3764" x1="1" x2="47" gradientUnits="userSpaceOnUse" gradientTransform="matrix(0,-1,1,0,-1.5e-6,47.999998)">
   <stop style="stop-color:#5b4e47;stop-opacity:1"/>
   <stop offset="1" style="stop-color:#665850;stop-opacity:1"/>
  </linearGradient>
 </defs>
 <g>
  <path d="m 36.31 5 c 5.859 4.062 9.688 10.831 9.688 18.5 c 0 12.426 -10.07 22.5 -22.5 22.5 c -7.669 0 -14.438 -3.828 -18.5 -9.688 c 1.037 1.822 2.306 3.499 3.781 4.969 c 4.085 3.712 9.514 5.969 15.469 5.969 c 12.703 0 23 -10.298 23 -23 c 0 -5.954 -2.256 -11.384 -5.969 -15.469 c -1.469 -1.475 -3.147 -2.744 -4.969 -3.781 z m 4.969 3.781 c 3.854 4.113 6.219 9.637 6.219 15.719 c 0 12.703 -10.297 23 -23 23 c -6.081 0 -11.606 -2.364 -15.719 -6.219 c 4.16 4.144 9.883 6.719 16.219 6.719 c 12.703 0 23 -10.298 23 -23 c 0 -6.335 -2.575 -12.06 -6.719 -16.219 z" style="opacity:0.05"/>
  <path d="m 41.28 8.781 c 3.712 4.085 5.969 9.514 5.969 15.469 c 0 12.703 -10.297 23 -23 23 c -5.954 0 -11.384 -2.256 -15.469 -5.969 c 4.113 3.854 9.637 6.219 15.719 6.219 c 12.703 0 23 -10.298 23 -23 c 0 -6.081 -2.364 -11.606 -6.219 -15.719 z" style="opacity:0.1"/>
  <path d="m 31.25 2.375 c 8.615 3.154 14.75 11.417 14.75 21.13 c 0 12.426 -10.07 22.5 -22.5 22.5 c -9.708 0 -17.971 -6.135 -21.12 -14.75 a 23 23 0 0 0 44.875 -7 a 23 23 0 0 0 -16 -21.875 z" style="opacity:0.2"/>
 </g>
 <g>
  <path d="m 24 1 c 12.703 0 23 10.297 23 23 c 0 12.703 -10.297 23 -23 23 -12.703 0 -23 -10.297 -23 -23 0 -12.703 10.297 -23 23 -23 z" style="fill:url(#linearGradient3764);fill-opacity:1"/>
 </g>
 <g>
  <g>
   <g transform="translate(1,1)">
    <g style="opacity:0.1">
     <!-- color: #665850 -->
     <g>
      <path d="m 23.836 11 c -2.977 4.063 -13.09 15.523 -8.785 22.14 c 3.336 5.125 14.668 5.152 17.961 0 c 4.289 -6.699 -6.641 -18.08 -9.176 -22.14 m 0 0" style="fill:#000;fill-opacity:1;stroke:none;fill-rule:nonzero"/>
     </g>
    </g>
   </g>
  </g>
 </g>
 <g transform="translate(4.5062891e-4,0)">
  <g>
   <!-- color: #665850 -->
   <g>
    <path d="m 23.836,11 c -2.977,4.063 -13.09,15.523 -8.785,22.14 3.336,5.125 14.668,5.152 17.961,0 C 37.301,26.441 26.371,15.06 23.836,11 m 0,0" style="fill:#f48e51;fill-opacity:1;stroke:none;fill-rule:nonzero"/>
    <path d="m 22.82 19.406 c -5.84 0.375 -7.832 8.859 -5.598 12.723 2.469 3.793 9.59 4.578 14 2.371 -0.773 -0.824 -1.848 -1.668 -3.25 -2.027 -3.148 -0.813 -7.859 -5.688 -5.496 -8.938 2.363 -3.25 6.281 0 6.281 0 0 0 -0.785 -3.25 -4.719 -4.066 -0.246 -0.047 -0.527 -0.051 -0.781 -0.063 -0.16 -0.008 -0.277 -0.008 -0.434 0 m -0.004 0" style="fill:#ffc675;fill-opacity:1;stroke:none;fill-rule:nonzero"/>
   </g>
  </g>
 </g>
 <g>
  <path d="m 40.03 7.531 c 3.712 4.084 5.969 9.514 5.969 15.469 0 12.703 -10.297 23 -23 23 c -5.954 0 -11.384 -2.256 -15.469 -5.969 4.178 4.291 10.01 6.969 16.469 6.969 c 12.703 0 23 -10.298 23 -23 0 -6.462 -2.677 -12.291 -6.969 -16.469 z" style="opacity:0.1"/>
 </g>
</svg>

<svg xmlns="http://www.w3.org/2000/svg" viewBox="0 0 48 48">
  <defs>
    <linearGradient id="a" x1="1" x2="47" gradientUnits="userSpaceOnUse" gradientTransform="rotate(-90 24 24)">
      <stop stop-color="#5b4e47"/>
      <stop offset="1" stop-color="#665850"/>
    </linearGradient>
  </defs>
  <path d="M36.31 5c5.859 4.062 9.688 10.831 9.688 18.5 0 12.426-10.07 22.5-22.5 22.5-7.669 0-14.438-3.828-18.5-9.688a23.24 23.24 0 0 0 3.781 4.969 22.923 22.923 0 0 0 15.469 5.969c12.703 0 23-10.298 23-23a22.92 22.92 0 0 0-5.969-15.469A23.216 23.216 0 0 0 36.31 5zm4.969 3.781A22.911 22.911 0 0 1 47.498 24.5c0 12.703-10.297 23-23 23a22.909 22.909 0 0 1-15.719-6.219C12.939 45.425 18.662 48 24.998 48c12.703 0 23-10.298 23-23 0-6.335-2.575-12.06-6.719-16.219z" opacity=".05"/>
  <path d="M41.28 8.781a22.923 22.923 0 0 1 5.969 15.469c0 12.703-10.297 23-23 23A22.92 22.92 0 0 1 8.78 41.281 22.911 22.911 0 0 0 24.499 47.5c12.703 0 23-10.298 23-23A22.909 22.909 0 0 0 41.28 8.781z" opacity=".1"/>
  <path d="M31.25 2.375C39.865 5.529 46 13.792 46 23.505c0 12.426-10.07 22.5-22.5 22.5-9.708 0-17.971-6.135-21.12-14.75a23 23 0 0 0 44.875-7 23 23 0 0 0-16-21.875z" opacity=".2"/>
  <path d="M24 1c12.703 0 23 10.297 23 23S36.703 47 24 47 1 36.703 1 24 11.297 1 24 1z" fill="url(#a)"/>
  <path d="M24.836 12c-2.977 4.063-13.09 15.523-8.785 22.14 3.336 5.125 14.668 5.152 17.961 0 4.289-6.699-6.641-18.08-9.176-22.14m0 0" opacity=".1"/>
  <g>
    <path d="M23.836 11c-2.977 4.063-13.09 15.523-8.785 22.14 3.336 5.125 14.668 5.152 17.961 0 4.29-6.699-6.64-18.08-9.176-22.14m0 0" fill="#f48e51"/>
    <path d="M22.82 19.406c-5.84.375-7.832 8.859-5.598 12.723 2.47 3.793 9.59 4.578 14 2.371-.773-.824-1.848-1.668-3.25-2.027-3.148-.813-7.859-5.688-5.496-8.938 2.363-3.25 6.281 0 6.281 0s-.785-3.25-4.719-4.066c-.246-.047-.527-.051-.78-.063a3.927 3.927 0 0 0-.435 0m-.004 0" fill="#ffc675"/>
  </g>
  <g>
    <path d="M40.03 7.531A22.922 22.922 0 0 1 45.999 23c0 12.703-10.297 23-23 23A22.92 22.92 0 0 1 7.53 40.031C11.708 44.322 17.54 47 23.999 47c12.703 0 23-10.298 23-23 0-6.462-2.677-12.291-6.969-16.469z" opacity=".1"/>
  </g>
</svg>
